X: 19
T:Eavesdropper
R:jig
C:Trad
M:6/8
L:1/8
K:G
D | GBB BAG | Bdd dBG | cee dBG | BAA ABA | GBB BAG | Bdd dBG | cee dBG
 | ABA G2 :|
d | gfg afd | efg d2 B | cee dBG | BAA Adf | gab afd | efg dBG | cee dB
G | ABA G2 :|
